!!!OTL: ICH WEISS NICHT WAS SOLL ES BEDEUTEN
!!!ARE: Europa, Mitteleuropa, Deutschland
!!!SCT: B0120
!!!YEM: Copyright 1995, estate of Helmut Schaffrath.
**kern
*ICvox
*Ivox
*M6/8
*k[]
*C:
{8g
=1
8.g
16a
8g
8cc
8b
8a
=2
4.g
4f}
{8f
=3
4e
8e
8d
8c
8d
=4
2e
8r}
{8g
=5
8.g
16a
8g
8cc
8b
8a
=6
4.g
4f}
{8f
=7
4e
8e
8g
8f
8d
=8
2c
8r}
{8e
=9
8.d
16e
8d
8g
8d
8g
=10
4.b
4a}
{8a
=11
4g
8g
8f#
8g
8a
=12
[2g
8g]}
{8g
=13
8.g
16a
8g
8cc
8b
8a
=14
4g
8ee
4dd}
{8dd
=15
4cc
8cc
8b
8a
8b
=16
2cc
8r}
==
!!!AGN: Ballade, Romanze
!!!ONB: ESAC (Essen Associative Code) Database: BOEHME
!!!AMT: compound duple
!!!AIN: vox
!!!EED: Helmut Schaffrath
!!!EEV: 1.0
*-
